flaticon/technology/mouse-2.svg

<svg xmlns="http://www.w3.org/2000/svg" width="32" height="32" viewBox="0 0 24 24">
    <path d="M 17.742188 7.351562 L 17.695312 6.992188 L 17.671875 6.992188 C 17.152344 4.550781 15.09375 2.671875 12.5625 2.429688 C 12.386719 1.503906 11.574219 0.800781 10.601562 0.800781 C 10.160156 0.800781 9.800781 0.441406 9.800781 0 L 9 0 C 9 0.882812 9.71875 1.601562 10.601562 1.601562 C 11.125 1.601562 11.570312 1.941406 11.730469 2.414062 C 9.066406 2.535156 6.867188 4.457031 6.328125 6.992188 L 6.304688 6.992188 L 6.257812 7.351562 C 6.21875 7.640625 6.199219 7.882812 6.199219 8.121094 L 6.199219 18.199219 C 6.199219 21.398438 8.800781 24 12 24 C 15.199219 24 17.800781 21.398438 17.800781 18.199219 L 17.800781 8.121094 C 17.800781 7.882812 17.78125 7.640625 17.742188 7.351562 Z M 17 8.199219 L 17 12.695312 C 16.222656 12.441406 15.640625 11.453125 15.640625 10.28125 C 15.640625 9.128906 16.214844 8.140625 16.984375 7.875 C 16.992188 7.984375 17 8.089844 17 8.199219 Z M 7.015625 7.875 C 7.785156 8.144531 8.359375 9.128906 8.359375 10.28125 C 8.359375 11.453125 7.777344 12.441406 7 12.695312 L 7 8.199219 C 7 8.089844 7.007812 7.984375 7.015625 7.875 Z M 12 23.199219 C 9.242188 23.199219 7 20.957031 7 18.199219 L 7 13.515625 C 8.222656 13.269531 9.160156 11.914062 9.160156 10.28125 C 9.160156 8.691406 8.300781 7.386719 7.132812 7.074219 C 7.644531 4.859375 9.628906 3.199219 12 3.199219 C 14.371094 3.199219 16.355469 4.859375 16.867188 7.074219 C 15.699219 7.386719 14.839844 8.695312 14.839844 10.28125 C 14.839844 11.914062 15.777344 13.269531 17 13.515625 L 17 18.199219 C 17 20.957031 14.757812 23.199219 12 23.199219 Z M 12 23.199219"/>
    <path d="M12.101562 9C12.816406 9 13.398438 8.417969 13.398438 7.699219 13.398438 6.984375 12.816406 6.398438 12.101562 6.398438 11.382812 6.398438 10.800781 6.984375 10.800781 7.699219 10.800781 8.417969 11.382812 9 12.101562 9zM12.101562 7.199219C12.375 7.199219 12.601562 7.425781 12.601562 7.699219 12.601562 7.976562 12.375 8.199219 12.101562 8.199219 11.824219 8.199219 11.601562 7.976562 11.601562 7.699219 11.601562 7.425781 11.824219 7.199219 12.101562 7.199219zM13.355469 19.566406C13.292969 19.550781 13.226562 19.519531 13.160156 19.46875 13.03125 19.375 12.945312 19.242188 12.929688 19.117188 12.925781 19.078125 12.925781 19.039062 12.933594 18.996094 12.96875 18.71875 12.855469 18.445312 12.632812 18.265625 12.414062 18.09375 12.128906 18.046875 11.871094 18.140625 11.601562 18.242188 11.339844 18.425781 11.070312 18.703125 10.765625 19.019531 10.597656 19.425781 10.601562 19.839844 10.609375 20.808594 11.402344 21.601562 12.375 21.601562 12.980469 21.601562 13.535156 21.296875 13.859375 20.789062 14 20.570312 14.023438 20.3125 13.933594 20.074219 13.835938 19.824219 13.617188 19.632812 13.355469 19.566406zM12.375 20.800781C11.839844 20.800781 11.402344 20.367188 11.398438 19.832031 11.398438 19.628906 11.484375 19.425781 11.644531 19.257812 11.828125 19.074219 11.996094 18.949219 12.136719 18.894531 12.125 18.996094 12.125 19.097656 12.136719 19.203125 12.171875 19.554688 12.375 19.886719 12.691406 20.117188 12.839844 20.222656 12.996094 20.300781 13.152344 20.339844 13.171875 20.347656 13.183594 20.355469 13.1875 20.355469 13.007812 20.632812 12.703125 20.800781 12.375 20.800781zM12.375 20.800781"/>
</svg>

<svg xmlns="http://www.w3.org/2000/svg" width="32" height="32" viewBox="0 0 24 24">
    <path d="M17.742 7.352l-.047-.36h-.023a5.807 5.807 0 0 0-5.11-4.562A2.003 2.003 0 0 0 10.602.8C10.16.8 9.8.442 9.8 0H9c0 .883.719 1.602 1.602 1.602.523 0 .968.34 1.128.812a5.8 5.8 0 0 0-5.402 4.578h-.023l-.047.36c-.04.289-.059.53-.059.77v10.077C6.2 21.4 8.801 24 12 24c3.2 0 5.8-2.602 5.8-5.8V8.12c0-.238-.019-.48-.058-.77zM17 8.199v4.496c-.777-.254-1.36-1.242-1.36-2.414 0-1.152.575-2.14 1.344-2.406.008.11.016.215.016.324zm-9.984-.324c.77.27 1.343 1.254 1.343 2.406 0 1.172-.582 2.16-1.359 2.414V8.2c0-.11.008-.215.016-.324zM12 23.199c-2.758 0-5-2.242-5-5v-4.683c1.223-.246 2.16-1.602 2.16-3.235 0-1.59-.86-2.894-2.027-3.207A5.005 5.005 0 0 1 12 3.2a5.005 5.005 0 0 1 4.867 3.875c-1.168.313-2.027 1.621-2.027 3.207 0 1.633.937 2.989 2.16 3.235v4.683c0 2.758-2.242 5-5 5zm0 0"/>
    <path d="M12.102 9a1.302 1.302 0 0 0 0-2.602 1.3 1.3 0 1 0 0 2.602zm0-1.8a.501.501 0 1 1-.5.5c0-.274.222-.5.5-.5zm0 0M13.355 19.566a.538.538 0 0 1-.195-.097.546.546 0 0 1-.23-.352.424.424 0 0 1 .004-.12.806.806 0 0 0-.301-.731.79.79 0 0 0-.762-.125c-.27.101-.531.285-.8.562a1.623 1.623 0 0 0-.47 1.137 1.78 1.78 0 0 0 1.774 1.762c.605 0 1.16-.305 1.484-.813a.788.788 0 0 0 .075-.715.848.848 0 0 0-.579-.508zm-.98 1.235a.978.978 0 0 1-.977-.969c0-.203.086-.406.247-.574.183-.184.351-.309.492-.363a1.359 1.359 0 0 0 0 .308c.035.352.238.684.554.914.149.106.305.184.461.223.02.008.032.015.036.015a.969.969 0 0 1-.813.446zm0 0"/>
</svg>
